src/topics/icons/noysi.svg

<?xml version="1.0" encoding="UTF-8" standalone="no"?>
<svg width="256px" height="256px" viewBox="0 0 256 256" version="1.1" xmlns="http://www.w3.org/2000/svg" xmlns:xlink="http://www.w3.org/1999/xlink" preserveAspectRatio="xMidYMid">
	<g>
		<path d="M256,186.0781 C256,224.6951 224.695,256.0001 186.078,256.0001 L69.922,256.0001 C31.305,256.0001 0,224.6951 0,186.0781 L0,69.9221 C0,31.3051 31.305,0.0001 69.922,0.0001 L186.078,0.0001 C224.695,0.0001 256,31.3051 256,69.9221 L256,186.0781 Z" fill="#17B6A7"></path>
		<path d="M146.3435,56.18 C141.4645,56.18 140.0895,59.195 143.2865,62.88 L194.9635,122.439 C198.1605,126.124 200.7765,125.147 200.7765,120.268 L200.7765,65.05 C200.7765,60.172 196.7845,56.18 191.9065,56.18 L146.3435,56.18 Z" fill="#FFFFFF"></path>
		<path d="M64.094,56.18 C59.215,56.18 55.224,60.172 55.224,65.05 L55.224,97.861 C55.224,102.74 57.82,109.764 60.993,113.47 L129.153,193.082 C132.326,196.788 138.914,199.82 143.793,199.82 L191.906,199.82 C196.785,199.82 200.776,195.828 200.776,190.95 L200.776,156.044 C200.776,151.165 198.15,144.168 194.939,140.494 L127.097,62.859 C123.886,59.186 117.268,56.18 112.389,56.18 L64.094,56.18 Z" fill="#FFFFFF"></path>
		<path d="M55.2236,190.9496 C55.2236,195.8286 59.2156,199.8196 64.0936,199.8196 L109.5656,199.8196 C114.4446,199.8196 115.8446,196.7836 112.6776,193.0736 L60.9826,132.5156 C57.8156,128.8046 55.2236,129.7606 55.2236,134.6396 L55.2236,190.9496 Z" fill="#FFFFFF"></path>
	</g>
</svg>

<svg height="256" preserveAspectRatio="xMidYMid" viewBox="0 0 256 256" width="256" xmlns="http://www.w3.org/2000/svg"><path d="m256 186.0781c0 38.617-31.305 69.922-69.922 69.922h-116.156c-38.617 0-69.922-31.305-69.922-69.922v-116.156c0-38.617 31.305-69.922 69.922-69.922h116.156c38.617 0 69.922 31.305 69.922 69.922z" fill="#17b6a7"/><g fill="#fff"><path d="m146.3435 56.18c-4.879 0-6.254 3.015-3.057 6.7l51.677 59.559c3.197 3.685 5.813 2.708 5.813-2.171v-55.218c0-4.878-3.992-8.87-8.87-8.87z"/><path d="m64.094 56.18c-4.879 0-8.87 3.992-8.87 8.87v32.811c0 4.879 2.596 11.903 5.769 15.609l68.16 79.612c3.173 3.706 9.761 6.738 14.64 6.738h48.113c4.879 0 8.87-3.992 8.87-8.87v-34.906c0-4.879-2.626-11.876-5.837-15.55l-67.842-77.635c-3.211-3.673-9.829-6.679-14.708-6.679z"/><path d="m55.2236 190.9496c0 4.879 3.992 8.87 8.87 8.87h45.472c4.879 0 6.279-3.036 3.112-6.746l-51.695-60.558c-3.167-3.711-5.759-2.755-5.759 2.124z"/></g></svg>
